www/assets/images/test_icons/flags/ES.svg

<svg fill="none" height="15" viewBox="0 0 21 15" width="21" xmlns="http://www.w3.org/2000/svg" xmlns:xlink="http://www.w3.org/1999/xlink"><mask id="a" height="15" maskUnits="userSpaceOnUse" width="21" x="0" y="0"><path d="m19 0h-17c-1.10457 0-2 .89543-2 2v11c0 1.1046.89543 2 2 2h17c1.1046 0 2-.8954 2-2v-11c0-1.10457-.8954-2-2-2z" fill="#fff"/></mask><g mask="url(#a)"><path d="m19 0h-17c-1.10457 0-2 .89543-2 2v11c0 1.1046.89543 2 2 2h17c1.1046 0 2-.8954 2-2v-11c0-1.10457-.8954-2-2-2z" fill="#cd0b20"/><g clip-rule="evenodd" fill-rule="evenodd"><path d="m0 4h21v7h-21z" fill="#ffcb00"/><path d="m9 6.22201v2.51999c0 .7-.672 1.26-1.5 1.26h-2c-.826-.002-1.5-.56499-1.5-1.26199v-2.52001c0-.572.448-1.04999 1.064-1.20499.186-.52.758-.054 1.436-.054.682 0 1.25-.46301 1.436.05499.614.159 1.064.63801 1.064 1.20601z" fill="#c8b47c"/><path d="m9 7h1v3h-1zm-6 0h1v3h-1z" fill="#b5b5b5"/><path d="m9 9h1v1h-1zm-6 0h1v1h-1z" fill="#165c96"/><path d="m9 6h1v1h-1zm-6 0h1v1h-1z" fill="#a0790a"/><path d="m5 6h1v1.5h-1zm2 2h1v1.5h-1z" fill="#d20636"/><path d="m7 6h1v1.5h-1z" fill="#a18793"/><path d="m5 8h1v1.5h-1z" fill="#ffe100"/><path d="m6 6-1-1h3l-1 1z" fill="#b6161a"/><path d="m6 4h1v1h-1z" fill="#ac9300"/></g><path d="m19 .5h-17c-.82843 0-1.5.67157-1.5 1.5v11c0 .8284.67157 1.5 1.5 1.5h17c.8284 0 1.5-.6716 1.5-1.5v-11c0-.82843-.6716-1.5-1.5-1.5z" stroke="#000" stroke-opacity=".1"/></g></svg>

<svg width="21" height="15" viewBox="0 0 21 15" fill="none" xmlns="http://www.w3.org/2000/svg">
<mask id="mask0_3_157" style="mask-type:alpha" maskUnits="userSpaceOnUse" x="0" y="0" width="21" height="15">
<path d="M19 0H2C0.89543 0 0 0.89543 0 2V13C0 14.1046 0.89543 15 2 15H19C20.1046 15 21 14.1046 21 13V2C21 0.89543 20.1046 0 19 0Z" fill="white"/>
</mask>
<g mask="url(#mask0_3_157)">
<path d="M19 0H2C0.89543 0 0 0.89543 0 2V13C0 14.1046 0.89543 15 2 15H19C20.1046 15 21 14.1046 21 13V2C21 0.89543 20.1046 0 19 0Z" fill="#CD0B20"/>
<path fill-rule="evenodd" clip-rule="evenodd" d="M0 4H21V11H0V4Z" fill="#FFCB00"/>
<path fill-rule="evenodd" clip-rule="evenodd" d="M9 6.22201V8.742C9 9.442 8.328 10.002 7.5 10.002H5.5C4.674 10 4 9.43701 4 8.74001V6.22C4 5.648 4.448 5.17001 5.064 5.01501C5.25 4.49501 5.822 4.96101 6.5 4.96101C7.182 4.96101 7.75 4.498 7.936 5.016C8.55 5.175 9 5.65401 9 6.22201Z" fill="#C8B47C"/>
<path fill-rule="evenodd" clip-rule="evenodd" d="M9 7H10V10H9V7ZM3 7H4V10H3V7Z" fill="#B5B5B5"/>
<path fill-rule="evenodd" clip-rule="evenodd" d="M9 9H10V10H9V9ZM3 9H4V10H3V9Z" fill="#165C96"/>
<path fill-rule="evenodd" clip-rule="evenodd" d="M9 6H10V7H9V6ZM3 6H4V7H3V6Z" fill="#A0790A"/>
<path fill-rule="evenodd" clip-rule="evenodd" d="M5 6H6V7.5H5V6ZM7 8H8V9.5H7V8Z" fill="#D20636"/>
<path fill-rule="evenodd" clip-rule="evenodd" d="M7 6H8V7.5H7V6Z" fill="#A18793"/>
<path fill-rule="evenodd" clip-rule="evenodd" d="M5 8H6V9.5H5V8Z" fill="#FFE100"/>
<path fill-rule="evenodd" clip-rule="evenodd" d="M6 6L5 5H8L7 6H6Z" fill="#B6161A"/>
<path fill-rule="evenodd" clip-rule="evenodd" d="M6 4H7V5H6V4Z" fill="#AC9300"/>
<path d="M19 0.5H2C1.17157 0.5 0.5 1.17157 0.5 2V13C0.5 13.8284 1.17157 14.5 2 14.5H19C19.8284 14.5 20.5 13.8284 20.5 13V2C20.5 1.17157 19.8284 0.5 19 0.5Z" stroke="black" stroke-opacity="0.1"/>
</g>
</svg>
